assets/icons/announcement-fill.svg

<svg width="20" height="20" viewBox="0 0 20 20" fill="none" xmlns="http://www.w3.org/2000/svg">
<path d="M15.0781 14.695L10.9342 11.8628V5.36521L15.0781 2.53225C15.1522 2.48984 15.2361 2.46764 15.3215 2.4679C15.4069 2.46815 15.4908 2.49084 15.5646 2.5337C15.6385 2.57656 15.6998 2.63807 15.7424 2.71209C15.785 2.7861 15.8074 2.87001 15.8074 2.95541V14.2726C15.8073 14.3579 15.7848 14.4417 15.7421 14.5156C15.6995 14.5895 15.6381 14.6509 15.5643 14.6937C15.4904 14.7365 15.4067 14.7591 15.3213 14.7593C15.236 14.7595 15.1521 14.7373 15.0781 14.695Z" fill="currentColor"/>
<path d="M5.2488 11.8628C4.38717 11.8628 3.56082 11.5205 2.95155 10.9113C2.34228 10.302 2 9.47564 2 8.61401C2 7.75237 2.34228 6.92603 2.95155 6.31676C3.56082 5.70749 4.38717 5.36521 5.2488 5.36521H10.0225V11.8628H8.4976L9.04746 15.7126C9.10314 16.1327 8.99082 16.5577 8.73489 16.8954C8.47896 17.233 8.10012 17.4561 7.68068 17.516C7.26124 17.5759 6.8351 17.4679 6.49487 17.2154C6.15463 16.9629 5.92779 16.5863 5.86364 16.1675L5.2488 11.8628Z" fill="currentColor"/>
<path d="M18 8.79924C18 7.76273 17.2808 6.8942 16.3142 6.6655V10.933C17.2808 10.7043 18 9.83575 18 8.79924Z" fill="currentColor"/>
</svg>

<svg xmlns="http://www.w3.org/2000/svg" width="20" height="20" fill="none" viewBox="0 0 20 20"><path fill="currentColor" d="m15.078 14.695-4.144-2.832V5.365l4.144-2.833a.487.487 0 0 1 .73.423v11.318a.487.487 0 0 1-.73.422m-9.829-2.832a3.25 3.25 0 0 1 0-6.498h4.774v6.498H8.498l.55 3.85a1.608 1.608 0 0 1-3.184.455zM18 8.8c0-1.037-.72-1.906-1.686-2.135v4.268A2.19 2.19 0 0 0 18 8.799"/></svg>
